public/svg/tree.svg

<svg xmlns="http://www.w3.org/2000/svg" width="55" height="54" viewBox="0 0 55 54" fill="none">
<path d="M16.0417 33.75H11.4583C8.92703 33.75 6.875 35.7647 6.875 38.25V42.75C6.875 45.2353 8.92703 47.25 11.4583 47.25H16.0417C18.573 47.25 20.625 45.2353 20.625 42.75V38.25C20.625 35.7647 18.573 33.75 16.0417 33.75Z" stroke="#1B5BF7" stroke-width="3.5" stroke-linecap="round" stroke-linejoin="round"/>
<path d="M43.5417 33.75H38.9583C36.427 33.75 34.375 35.7647 34.375 38.25V42.75C34.375 45.2353 36.427 47.25 38.9583 47.25H43.5417C46.073 47.25 48.125 45.2353 48.125 42.75V38.25C48.125 35.7647 46.073 33.75 43.5417 33.75Z" stroke="#1B5BF7" stroke-width="3.5" stroke-linecap="round" stroke-linejoin="round"/>
<path d="M29.7917 6.75H25.2083C22.677 6.75 20.625 8.76472 20.625 11.25V15.75C20.625 18.2353 22.677 20.25 25.2083 20.25H29.7917C32.323 20.25 34.375 18.2353 34.375 15.75V11.25C34.375 8.76472 32.323 6.75 29.7917 6.75Z" stroke="#1B5BF7" stroke-width="3.5" stroke-linecap="round" stroke-linejoin="round"/>
<path d="M13.75 33.75V31.5C13.75 30.3065 14.2329 29.1619 15.0924 28.318C15.952 27.4741 17.1178 27 18.3333 27H36.6667C37.8822 27 39.048 27.4741 39.9076 28.318C40.7671 29.1619 41.25 30.3065 41.25 31.5V33.75" stroke="#1B5BF7" stroke-width="3.5" stroke-linecap="round" stroke-linejoin="round"/>
<path d="M27.5 20.25V27" stroke="#1B5BF7" stroke-width="3.5" stroke-linecap="round" stroke-linejoin="round"/>
</svg>

<svg xmlns="http://www.w3.org/2000/svg" width="55" height="54" fill="none" xmlns:v="https://vecta.io/nano"><g stroke="#1b5bf7" stroke-width="3.5" stroke-linejoin="round"><use href="#B"/><use href="#B" x="27.5"/><use href="#B" x="13.75" y="-27"/><g stroke-linecap="round"><path d="M13.75 33.75V31.5a4.46 4.46 0 0 1 1.342-3.182c.86-.844 2.025-1.318 3.241-1.318h18.333c1.215 0 2.381.474 3.241 1.318A4.46 4.46 0 0 1 41.25 31.5v2.25"/><path d="M27.5 20.25V27"/></g></g><defs ><path id="B" d="M16.042 33.75h-4.583c-2.531 0-4.583 2.015-4.583 4.5v4.5c0 2.485 2.052 4.5 4.583 4.5h4.583c2.531 0 4.583-2.015 4.583-4.5v-4.5c0-2.485-2.052-4.5-4.583-4.5z"/></defs></svg>
